X:1
T:[Audiveris detected movement]
T:Budweiser's A Friend Of Mine
T:Music by SEYMOUR FURTH
T:Words by VINCENT BRYAN
%%score 1 { ( 2 4 ) | 3 }
L:1/8
Q:1/4=180
M:3/4
K:Bb
V:1 treble nm="Voice"
V:2 treble nm="Piano"
V:4 treble 
V:3 bass 
V:1
"^Tempo di Valse.""^INTRO" z6 | z6 | z6 | z6 | z6 | z6 | z6 | z6 || z6 | z6 | z6 | z6 |: z6 | z6 | %14
w: ||||||||||||||
w: ||||||||||||||
w: ||||||||||||||
w: ||||||||||||||
 z6 | z2 z2 F2 || F2 D2 F2 | G2 D2 G2 | A2 c2 B2 | F2 G2 B2 | A2 B2 G2 | A2 B2 G2 | A6- | %23
w: |The|Po- ets may|sing of the|friends who will|cling to you,|When you are|gloom- y and|blue,|
w: |The|friends to take|pride in, are|those you con-|fide in, When|trou- ble comes|walk- ing your|way,|
w: |Bill|Brown's just been|mar- ried, one|night he was|car- ried, Up|home at the|hour _ of|one,|
w: |Next|ev- 'ning at|din- ner Bill|Brown the old|sin- ner, Told|wi- fie, I'm|go- ing out|dear,|
 A z z2 A2 | A2 B2 G2 | A2 B2 G2 | A2 C2 E2 | G2 G2 G2 | A2 B2 G2 | A2 B2 c2 | F6- | F z z2 F2 | %32
w: _ But|I have one|friend who will|stick to the|end, Just the|dear- est friend|I e- ver|knew.|_ When|
w: _ Most|wo- men, will|scold you, and|say: "Well, I|told you" When|ev- er your|plans go a-|stray,|_ But|
w: _ His|wife, who'd re-|ti- red, got|up and ad-|mi- red, His|beau- ti- ful,|beau- ti- ful|"bun."|_ She|
w: _ She|said: "Stay at|home Bill, there's|no need to|roam, Bill, For|your old friend,|Bud- wei- ser's|here,"|_ Said|
 F2 D2 F2 | G2 D2 G2 | A2 c2 B2 | F2 F2 ^F2 | G2 G2 G2 | G2 A2 =B2 | c6- | c2 z2 A2 | G2 e2 e2 | %41
w: e- ver I'm|sad, And the|world treats me|bad- ly, In|to some Raths-|kel- ler I|stray,|_ I|fill up a|
w: my friend you|see, ne- ver|talks back to|me, If I'm|wrong he has|noth- ing to|say,|_ Some|friends love to|
w: asked who de-|tained him, her|an- gry voice|pained him, She|said: "Where on|earth did you|roam?"|_ He|ans- wered: "E-|
w: Bill: "If you've|met him, you'd|bet- ter go|get him, You're|more like a|pal than a|wife.|_ So|fill up my|
 e2 d2 c2 | F2 d2 d2 | d2 c2 B2 | G2 A2 B2 | c2 d2 G2 | c6- | c2 z2 z2 | B2 z2 c2 | d2 c2 B2 | %50
w: stein with this|old friend of|mine And I|dream all my|sor- row a-|way:|_|Bud, Bud-|wei- ser's a|
w: tell you, why|hard luck be-|fell you, Bud-|wei- ser is|wi- ser than|they:|_|||
w: li- za, I've|been with Bud-|wei- ser, I've|been tak- ing|Bud- wei- ser|home:|_|||
w: schoo- ner, the|quick- er the|soon- er, And|we'll have the|time of our|life."|_|||
 A2 z2 G2 | F6 | B2 z2 B2 | B2 A2 G2 | !>!A2 z2 A2 | A6 | !>!c2 z2 d2 | e2 c2 A2 | G4 A2 | %59
w: friend of|mine,|Friend of|mine, yes, a|friend of|mine,|What care|I, if the|sun don't|
w: |||||||||
w: |||||||||
w: |||||||||
 F2 =E2 F2 | c6 | ^c6 | d2 f4- | f4 z2 | B2 z2 c2 | d2 c2 B2 | A2 z2 G2 | F6 | !^!B2 z2 B2 | %69
w: shine, While I've|got|Bud-|wei- ser;|_|That's the|rea- son, I|feel so|fine,|feel so|
w: ||||||||||
w: ||||||||||
w: ||||||||||
 B2 A2 G2 | !^!A2 z2 A2 | A4 F2 | B2 c2 d2 | c2 B2 G2 | B2 c2 d2 | c2 B2 G2 | F2 B2 d2 | %77
w: fine, yes, I|feel so|fine; For|though Bill the|Kai- ser's a|friend of Bud-|wei- ser's, Bud-|wei- ser's a|
w: ||||||||
w: ||||||||
w: ||||||||
 c2 z2 d2 |1,2,3 B6 | z6 :|4 B6- | B2 z4 |] %82
w: friend of|mine.||mine.|_|
w: |||||
w: |||||
w: |||||
V:2
 [Bdfb]2 z2 [cc']2 | [dfd']2 [cfc']2 [Bfb]2 | !^![Adfa]2 z2 [GBdg]2 | [FBdf]6 | (!>!f3 g fe) | %5
 (d2 B2) B2 | (!>!F3 G FE) | (D2 B,2) B,2 || (!^!_D2 C2) C2 | (!^!_D2 C2) C2 | %10
 !^!F2 z2!sfz! !^![A,EF]2 |!sfz! !^![B,DFB]2 z2 z2 |:{F,G,A,} B,2 [B,DF]2"^Vamp." [B,DF]2 | %13
 z2 [B,DF]2 [B,DF]2 | z2 [B,DF]2 [B,DF]2 | z2 [B,DF]2 [B,DF]2 || F2 D2 F2 | [DG]2 D2 G2 | %18
 [DA]2 [Dc]2 [DB]2 | [DF]2 [DG]2 [DB]2 | [DA]2 [DB]2 [DG]2 | [FA]2 [FB]2 [=EG]2 | z2 f=e fg | %23
 f z z2 A2 | [EA]2 [EB]2 [EG]2 | [EA]2 [EB]2 [EG]2 | [EA]2 C2 E2 | [EG]2 [EG]2 [EG]2 | %28
 [EA]2 [EB]2 [EG]2 | [EA]2 [EB]2 [Ec]2 | z2 dc BG | [DF] z z2 F2 | [DF]2 D2 F2 | [DG]2 D2 G2 | %34
 [DA]2 [Dc]2 [DB]2 | [DF]2 [DF]2 [C^F]2 | [=B,=FG]2 [B,FG]2 [B,FG]2 | [=B,FG]2 [B,FA]2 [B,F=B]2 | %38
 [Cc]6- | [Cc]4 A2 | [EG]2 [EGe]2 [EGe]2 | [EGe]2 [F=Bd]2 [EGc]2 | [DF]2 [DFd]2 [DFd]2 | %43
 [DFBd]2 [EAc]2 [DGB]2 | [=EG]2 [EA]2 [EB]2 | [=EBc]2 [EBd]2 [EG]2 | [_EFAc]6 | !^![FAcef]2 z2 z2 | %48
 !^![DFB]2 z2 [DFc]2 | [DFd]2 [DFc]2 [DFB]2 | !^![DA]2 z2 [DG]2 | [DF]6 | !^![DFB]2 z2 [DFB]2 | %53
 [DFB]2 [DA]2 [DG]2 | !^![EA]2 z2 [EA]2 | [A,A]6 | !^![EAc]2 z2 [EAd]2 | [EAe]2 [EAc]2 [EA]2 | %58
 [G,G]4 [A,EA]2 | [F,A,EF]2 [=E,=E]2 [F,F]2 | [Cc]6 | [^C^c]6 | !^![FBd]2 !^![FBdf]4 | %63
 !^![ceac']2 !^![fac'f']4 | !^![DFB]2 z2 [DFc]2 | [DFd]2 [DFc]2 [DFB]2 | !^![DA]2 z2 [DG]2 | %67
 [DF]6 | !^![DFB]2 z2 [DFB]2 | [DFB]2 [DA]2 [DG]2 | !^![EA]2 z2 [EA]2 | [A,A]4 F2 | %72
 [DFB]2 [DFc]2 [DFd]2 | [Gc]2 [GB]2 [EG]2 | [FB]2 [Fc]2 [Fd]2 | [=Ec]2 [EB]2 [EG]2 | %76
 [DF]2 [DFB]2 [FBd]2 | !^![=EBc]2 z2 !^![_EAd]2 |1,2,3 !>![DFB]2 !>!c2 !>!d2 | !>!c4 !>!d2 :|4 %80
 [DB]4 !^![FAcf]2 | !^![Bdfb]2 z2 z2 |] %82
V:3
!f! [B,,B,]2 [F,B,D]2 [F,B,DF]2 | [F,,F,]2 [F,B,D]2 [F,B,D]2 | [B,,B,]2 [F,B,D]2 [F,B,D]2 | %3
 [F,,F,]2 [F,B,D]2 [F,B,D]2 | (!>!F3 G FE) | (D2 B,2) B,2 | (!>!F,3 G, F,E,) | (D,2 B,,2) B,,2 || %8
 (!^!_G,2 F,2) F,2 | (!^!_G,2 F,2) F,2 | !^![F,,F,]2 z2 !^![F,,F,]2 | !^![B,,,B,,]2 z2 z2 |: %12
 [B,,,B,,]2 z2 z2 | [F,,,F,,]2 z2 z2 | [B,,,B,,]2 z2 z2 | [F,,,F,,]2 z2 z2 || %16
 B,,2 [F,B,]2 [F,B,]2 | F,,2 [F,B,]2 [F,B,]2 | B,,2 [F,B,]2 [F,B,]2 | F,,2 [F,B,]2 [F,B,]2 | %20
 B,,2 [F,B,]2 [F,B,]2 | D,2 [F,B,]2 _D,2 | C,2 [E,F,A,]2 [E,F,A,]2 | F,,2 [E,F,A,]2 [E,F,A,]2 | %24
 C,2 [E,F,A,]2 [E,F,A,]2 | F,,2 [E,F,A,]2 [E,F,A,]2 | C,2 [E,F,A,]2 [E,F,A,]2 | %27
 F,,2 [E,F,A,]2 [E,F,A,]2 | C,2 [E,F,A,]2 [E,F,A,]2 | F,,2 [E,F,A,]2 [E,F,A,]2 | %30
 B,,2 [F,B,]2 [F,B,]2 | F,,2 [F,B,]2 [F,B,]2 | B,,2 [F,B,]2 [F,B,]2 | F,,2 [F,B,]2 [F,B,]2 | %34
 B,,2 [F,B,]2 [F,B,]2 | [B,,B,]2 [B,,B,]2 [_A,,_A,]2 | [G,,G,]4 [G,,G,]2 | D,4 G,,2 | %38
 [E,,E,]4 [D,,D,]2 | [C,,C,]4 z2 | C,2 [G,C]2 [G,C]2 | C,2 D,2 E,2 | [F,,F,]2 [F,B,]2 [F,B,]2 | %43
 [F,,F,]2 [^F,,^F,]2 [G,,G,]2 | C,2 [B,C]2 [B,C]2 | C,2 [B,C]2 [B,C]2 | [F,,F,]6 | %47
 !^![F,,,F,,]2 z2 z2 | B,,2 [F,B,]2 [F,B,]2 | F,,2 [F,B,]2 [F,B,]2 | B,,2 [F,B,]2 [F,B,]2 | %51
 F,,2 [F,B,]2 [F,B,]2 | B,,2 [F,B,]2 [F,B,]2 | F,,2 [F,B,]2 [F,B,]2 | C,2 [E,F,A,]2 [E,F,A,]2 | %55
 F,,2 z2 z2 | C,2 [E,F,A,]2 [E,F,A,]2 | F,,2 [E,F,A,]2 [E,F,A,]2 | C,2 z2 z2 | F,,2 z2 z2 | %60
!<(! [A,,A,]2 z2 z2!<)! | [F,,F,]2 z2 z2 | B,,2 [F,B,D]4 |!f! F,,2 [F,A,E]4 | %64
 B,,2 [F,B,]2 [F,B,]2 | F,,2 [F,B,]2 [F,B,]2 | B,,2 [F,B,]2 [F,B,]2 | F,,2 [F,B,]2 [F,B,]2 | %68
 B,,2 [F,B,]2 [F,B,]2 | F,,2 [F,B,]2 [F,B,]2 | C,2 [E,F,A,]2 [E,F,A,]2 | E,,2 z2 F,,2 | %72
 B,,2 [F,B,]2 [F,B,]2 | E,2 [G,B,]2 [G,B,]2 | D,2 [F,B,]2 [F,B,]2 | C,2 [G,B,]2 [G,B,]2 | %76
 [F,,F,]2 [F,B,]2 [F,B,]2 | [G,,G,]2 z2 [F,,F,]2 |1,2,3!<(! !>![B,,B,]2 !>![C,C]2 !>![D,D]2!<)! | %79
!>(! !>![C,C]4 !>![D,D]2!>)! :|4 [B,,B,]4 !^![F,,F,]2 | !^![A,,,B,,]2 z2 z2 |] %82
V:4
 x6 | x6 | x6 | x6 | x6 | x6 | x6 | x6 || x6 | x6 | x6 | x6 |: x6 | x6 | x6 | x6 || x6 | x6 | x6 | %19
 x6 | x6 | x6 | [_EA]6- | [EA] z x4 | x6 | x6 | x6 | x6 | x6 | x6 | [D-F]6 | x6 | x6 | x6 | x6 | %35
 x6 | x6 | x6 | z2 [EG]2 [EG]2 | z2 [EG]2 z2 | x6 | x6 | x6 | x6 | x6 | x6 | x6 | x6 | x6 | x6 | %50
 x6 | x6 | x6 | x6 | x6 | z2 [EF]2 [EF]2 | x6 | x6 | z2 [CE]2 z2 | x6 | z2 [EF]2 [EF]2 | %61
 z2 [FA]2 [FA]2 | x6 | x6 | x6 | x6 | x6 | x6 | x6 | x6 | x6 | z2 [EF]2 [A,E]2 | x6 | x6 | x6 | %75
 x6 | x6 | x6 |1,2,3 x6 | x6 :|4 x6 | x6 |] %82

